X:1
T:Donna il dir
T:Donna il dir
T:Domenico Obizzi
T:Source : Madrigali et arie a voce sola---Libro I---Venetia---A.Vincenti---1627. Editor : André Vierendeels (13/05/15).
T:Notes : Original clefs C1, F4 Figures in BC are notated in original print 
T:Madrigal
C:Dominico Obizzi
%%score 1 2
L:1/8
Q:1/4=76
M:4/4
K:C
V:1 treble nm="Soprano" snm="S"
V:2 bass nm="BC" snm="BC"
V:1
 A4 A4 | z2 A2 d2 cd | _B4 A4 | c2 dA B4 | d2 eB c2 B/c/d/A/ | B4 B2 ed | c2 Bc A2 dc | %7
w: Don- na,|il dir ch'io non|v'a- mi,|al- tro non è,|al- tro non è ch'un _ _ _|di- re, di vo-|ler- mi ve- der, di vo-|
 B2 AB ^G2 c2- | cB d4 B2 | z2 ed c2 Bc | A2 d4 cd | B4 A4 | F2 GD E4 | G2 AE F2 E/F/G/D/ | %14
w: ler- mi ve- der cru-|* da, cru- da,|di vo- ler- mi ve-|der cru- da mo-|ri- re,|al- tro non è,|al- tro non è ch'un _ _ _|
 E4 E2 AG | F2 EF D2 GF | E2 DE ^C2 F2- | FE G4 E2 | z2 AG F2 EF | D2 G4 FG | E4 D4 | z2 DE F4 | %22
w: di- re, di vo-|ler- mi ve- der, di vo-|ler- mi ve- der cru-|* da, cru- da,|di vo- ler- mi ve-|der cru- da mo-|ri- re,|se per- che,|
 z2 FG A2 A2 | z2 AB c2 cB | d4 d4 | z2 B2 e2 e2- | e2 fA B4 | B2 c^G A4 | z dcd B4 | A4 z2 AE | %30
w: per- che v'a- mo,|per- che v'a- mo io|vi- vo,|sa- rei pri-|* vo d'a- mor,|pri- vo d'a- mor|di vi- ta pri-|vo, se per-|
 F4 z2 FE | G2 G2 z2 GG | A2 A2 A2 G2 | A3 E A2 A2- | A2 GA F4 | _B2 AB G3 G | G2 F/G/A/D/ E4 | %37
w: che, per- che|v'a- mo, per- che|v'a- mo vi- *|vo, sa- rei pri-|* vo d'a- mor,|pri- vo d'a- mor di|vi- ta _ _ _ pri-|
 D8 |] %38
w: vo.|
V:2
 D,8 | D,4 ^F,4 | G,4 D,4 | E,2 ^F,2 G,4 | ^F,2 ^G,2 A,2 F,2 | E,4 E,4 | E,4 F,2 D,2- | %7
 D,2 D,2 E,4 | F,2 D,2 E,4 | E,4 E,4 | F,2 D,2 E,4 | E,4 A,,4 | A,,2 B,,2 C,4 | %13
 B,,2 ^C,2 D,2 _B,,2 |"^#""^#" A,,4 A,,4 |"^#" A,,4 _B,,2 G,,2- |"^b""^b" G,,2 G,,2 A,,4 | %17
"^#""^6" _B,,2 G,,2 A,,4 |"^#""^#" A,,4 A,,4 |"^#""^6" _B,,2 G,,2 A,,4 | A,,4 D,4 | D,8 | D,8 | %23
 A,,8 | G,,8 | G,4 ^G,4 |"^#" A,2 F,2 E,4 | E,4 F,4 | D,4 E,4 |"^#" A,,4 A,,4 | D,4 D,4 | C,4 C,4 | %32
 A,,4 _B,,4 | A,,4 A,,4 |"^-natural" B,,2 ^C,2 D,4 |"^6" G,,4 G,,4 |"^#" A,,8 | D,8 |] %38

